icon/cg/arrow-long-down-r.svg

<svg viewBox="0 0 24 24" fill="none" xmlns="http://www.w3.org/2000/svg" height="1em" width="1em">
  <path fill-rule="evenodd" clip-rule="evenodd" d="M16.2416 4.64146L11.9989 0.398819L7.75629 4.64146L11.0003 7.88551L11.013 19.7865L9.16846 17.9523L7.75821 19.3704L12.0127 23.6012L16.2437 19.3466L14.8255 17.9363L13.013 19.7591L13.0003 7.8827L16.2416 4.64146ZM10.5847 4.64146L11.9989 3.22725L13.4131 4.64146L11.9989 6.05567L10.5847 4.64146Z" fill="currentColor"/>
</svg>

<svg width="24" height="24" fill="none" xmlns="http://www.w3.org/2000/svg"><path fill-rule="evenodd" clip-rule="evenodd" d="M16.242 4.641 11.999.4 7.756 4.64 11 7.886l.013 11.9-1.845-1.834-1.41 1.418 4.255 4.231 4.23-4.254-1.417-1.41-1.813 1.822L13 7.883l3.242-3.242Zm-5.657 0 1.414-1.414 1.414 1.414L12 6.056 10.585 4.64Z" fill="currentColor"/></svg>
